X:438
T: Hongjun dao jinzhai
N: C2056
O: China, Anhui Jinzhai
S: III, 553, 1)]
R: Xiaodiao]
M: 2/4
L: 1/16
K: Bb
B2BGB2BG | GBF4G2 | GB2cB2BG | B8 |
F2D2F4 | G2c2B4 | G2B2D2CD | F4B2G2 | F4z4

